assets/icons/drive/ieee1394.svg

<?xml version="1.0" encoding="UTF-8" standalone="no"?>
<svg viewBox="0 0 24 24" height="24" width="24" version="1.1" id="svg8" sodipodi:docname="ieee1394.svg" inkscape:version="1.1 (ce6663b3b7, 2021-05-25)"
   xmlns:inkscape="http://www.inkscape.org/namespaces/inkscape"
   xmlns:sodipodi="http://sodipodi.sourceforge.net/DTD/sodipodi-0.dtd"
   xmlns="http://www.w3.org/2000/svg"
   xmlns:svg="http://www.w3.org/2000/svg">
   <defs id="defs12" />
   <sodipodi:namedview id="namedview10" pagecolor="#ffffff" bordercolor="#666666" borderopacity="1.0" inkscape:pageshadow="2" inkscape:pageopacity="0.0" inkscape:pagecheckerboard="0" showgrid="true" width="24px" inkscape:zoom="28" inkscape:cx="7.375" inkscape:cy="10.160714" inkscape:window-width="1920" inkscape:window-height="1016" inkscape:window-x="0" inkscape:window-y="27" inkscape:window-maximized="1" inkscape:current-layer="svg8">
      <inkscape:grid type="xygrid" id="grid823" />
   </sodipodi:namedview>
   <path style="color:#000000;fill:#808080;fill-opacity:1;-inkscape-stroke:none" d="m 8.5,2.0000001 c -1.4999985,0 -2.5560503,-0.050745 -3.3828125,0.4453125 -0.4133811,0.2480287 -0.7199379,0.6559075 -0.8886719,1.1621094 -0.1687339,0.5062019 -0.2285156,1.1148011 -0.2285156,1.8925781 v 12.9999999 c 0,0.777777 0.059782,1.386376 0.2285156,1.892578 0.168734,0.506202 0.4752908,0.914081 0.8886719,1.162109 0.8267622,0.496058 1.882814,0.445313 3.3828125,0.445313 h 7 c 1.499998,0 2.55605,0.05074 3.382812,-0.445313 0.413382,-0.248028 0.719938,-0.655907 0.888672,-1.162109 0.168734,-0.506202 0.228516,-1.114801 0.228516,-1.892578 v -12.9999999 c 0,-0.777777 -0.05978,-1.3863762 -0.228516,-1.8925781 -0.168734,-0.5062019 -0.47529,-0.9140807 -0.888672,-1.1621094 -0.826762,-0.4960573 -1.882814,-0.4453125 -3.382812,-0.4453125 z m 0,1 h 7 c 1.499998,0 2.443951,0.050746 2.867187,0.3046875 0.211619,0.126971 0.342563,0.2815934 0.455079,0.6191406 0.112515,0.3375473 0.177734,0.8539504 0.177734,1.5761719 v 12.9999999 c 0,0.722221 -0.06522,1.238625 -0.177734,1.576172 -0.112516,0.337547 -0.24346,0.49217 -0.455079,0.61914 -0.423236,0.253942 -1.367188,0.304688 -2.867187,0.304688 h -7 c -1.4999985,0 -2.443951,-0.05075 -2.8671875,-0.304688 -0.2116183,-0.12697 -0.3425624,-0.281593 -0.4550781,-0.61914 -0.1125158,-0.337547 -0.1777344,-0.853951 -0.1777344,-1.576172 v -12.9999999 c 0,-0.7222215 0.065219,-1.2386246 0.1777344,-1.5761719 0.1125157,-0.3375472 0.2434598,-0.4921696 0.4550781,-0.6191406 0.4232365,-0.2539419 1.367189,-0.3046875 2.8671875,-0.3046875 z" id="path860" />
   <path id="path1023" style="fill:#808080;fill-rule:evenodd;stroke:none;stroke-width:0.5;stroke-linecap:round;fill-opacity:1" d="M 12 10 A 3 3 0 0 0 9 13 A 3 3 0 0 0 12 16 A 3 3 0 0 0 15 13 A 3 3 0 0 0 12 10 z M 12 11 A 2 2 0 0 1 14 13 A 2 2 0 0 1 12 15 A 2 2 0 0 1 10 13 A 2 2 0 0 1 12 11 z " />
   <path style="color:#000000;fill:#808080;-inkscape-stroke:none;fill-opacity:1" d="m 14.353516,7.6464844 -0.707032,0.7070312 3,3.0000004 0.707032,-0.707032 z" id="path1083" />
   <path style="color:#000000;fill:#808080;-inkscape-stroke:none;fill-opacity:1" d="m 9.6464844,7.6464844 -3,2.9999996 0.7070312,0.707032 3.0000004,-3.0000004 z" id="path1085" />
   <path style="color:#000000;fill:#808080;fill-opacity:1;-inkscape-stroke:none" d="m 10,17 v 1 h 4 v -1 z" id="path1087" />
</svg>

<svg height="24" width="24" xmlns="http://www.w3.org/2000/svg"><path style="color:#000;fill:gray;fill-opacity:1;-inkscape-stroke:none" d="M8.5 2c-1.5 0-2.556-.05-3.383.445-.413.248-.72.656-.888 1.162C4.059 4.114 4 4.722 4 5.5v13c0 .778.06 1.386.229 1.893.168.506.475.914.888 1.162C5.944 22.05 7 22 8.5 22h7c1.5 0 2.556.05 3.383-.445.413-.248.72-.656.888-1.162.17-.507.229-1.115.229-1.893v-13c0-.778-.06-1.386-.229-1.893-.168-.506-.475-.914-.888-1.162C18.056 1.95 17 2 15.5 2zm0 1h7c1.5 0 2.444.05 2.867.305.212.127.343.281.455.619.113.337.178.854.178 1.576v13c0 .722-.065 1.239-.178 1.576-.112.338-.243.492-.455.62C17.944 20.948 17 21 15.5 21h-7c-1.5 0-2.444-.05-2.867-.305-.212-.127-.343-.281-.455-.619C5.065 19.74 5 19.222 5 18.5v-13c0-.722.065-1.239.178-1.576.112-.338.243-.492.455-.62C6.056 3.052 7 3 8.5 3z"/><path style="fill:gray;stroke:none;stroke-width:.5;stroke-linecap:round;fill-opacity:1" d="M12 10a3 3 0 0 0-3 3 3 3 0 0 0 3 3 3 3 0 0 0 3-3 3 3 0 0 0-3-3zm0 1a2 2 0 0 1 2 2 2 2 0 0 1-2 2 2 2 0 0 1-2-2 2 2 0 0 1 2-2z"/><path style="color:#000;fill:gray;-inkscape-stroke:none;fill-opacity:1" d="m14.354 7.646-.708.708 3 3 .708-.708zm-4.708 0-3 3 .708.708 3-3z"/><path style="color:#000;fill:gray;fill-opacity:1;-inkscape-stroke:none" d="M10 17v1h4v-1z"/></svg>
